!!!COM: Mozart, Wolfgang Amadeus
!!!CDT: 1756/01/27/-1791/12/05/
!!!CNT: German
!!!OTL: Piano Sonata No. 14 in C minor
!!!SCT1: K<sup>1</sup> 310
!!!SCT2: K<sup>6</sup> 300d
!!!OMV: Mvmt. 2
!!!OMD: Adagio
!!!ODT: 1784///
**kern	**kern	**dynam
*staff2	*staff1	*staff1/2
*clefF4	*clefG2	*clefG2
*k[b-e-a-]	*k[b-e-a-]	*k[b-e-a-]
*E-:	*E-:	*E-:
*M4/4	*M4/4	*M4/4
*met(c)	*met(c)	*met(c)
*MM60	*MM60	*MM60
=1-	=1-	=1-
*	*^	*
(16E-\LL	4b-/	2r	.
16G\	.	.	.
16B-\	.	.	.
16G\JJ	.	.	.
16E-\LL	8g/L	.	.
16G\	.	.	.
16B-\	8g/J	.	.
16G\JJ	.	.	.
16BB-\LL	(8..g/L	(4e-\	.
16E-\	.	.	.
16G\	.	.	.
16E-\JJ	.	.	.
.	32a-/Jkk	.	.
16BB-\LL	8f/	8d\)	.
16D\	.	.	.
16F\	8r	8r	.
16D\JJ)	.	.	.
=2	=2	=2	=2
4E-\	4e-/	(16G\LL	f
.	.	16B-\	.
.	.	16G\	.
.	.	(16B-\JJ)	.
4BB-/	4f/	16d\LL	.
.	.	16B-\	.
.	.	16d\	.
.	.	16B-\JJ)	.
4EE-/	(16.g/LL	8e-\	p
.	32a-/JJk	.	.
.	32b-/LLL	8r	.
.	32cc/	.	.
.	32dd/	.	.
.	32ee-/JJJ)	.	.
4r	16b-/	8r	.
.	16r	.	.
.	8r	16ee-\ (16gg\LL	.
.	.	16dd\ 16ff\JJ	.
=3	=3	=3	=3
8r	16cc\ 16ee-\LL	4r	.
.	16b-\ 16dd\	.	.
(16D\LL	16a-\ 16cc\	.	.
16E-\JJ	16g\ 16b-\JJ	.	.
16F\LL	4r	16f/ 16a-/LL	<
16G\	.	16g/	.
16A-\	.	16c/ 16cc/	.
16F\JJ)	.	16f/ 16a-/JJ)	.
(16An\LL	(4e-\	(4g/	f
16B-\	.	.	.
16G\	.	.	.
16E-\JJ	.	.	.
8BB-/)	8d\)	16f'/LL)	.
.	.	(16g'/	p
8r	8r	16a-'/	.
.	.	16an'/JJ)	.
=4	=4	=4	=4
(16E-\LL	[8b-/L	4r	.
16G\	.	.	.
16B-\	(32b-/LL]	.	.
.	32dd/	.	.
16G\JJ	32ee-/	.	.
.	32b-/JJJ	.	.
16E-\LL	(16g/LL)	4r	.
16G\	16g'/	.	.
16B-\	16g'/	.	.
16G\JJ	16g'/JJ	.	.
16BB-\LL	(8..g/L	(4e-\)	.
16E-\	.	.	.
16G\	.	.	.
16E-\JJ	.	.	.
.	32a-/Jkk	.	.
16BB-\LL	8f/)	8d\)	.
16D\	.	.	.
16F\	32r	8r	.
.	(32b-/LLL	.	.
16D\JJ)	32a-/	.	.
.	32f/JJJ)	.	.
=5	=5	=5	=5
4E-\	4e-/	16r	.
.	.	(16G\LL	.
.	.	16B-\	.
.	.	(16G\JJ)	.
4BB-/	4f/	16d\LL	.
.	.	16B-\	.
.	.	16d\	.
.	.	16B-\JJ)	.
4EE-/	(16.g/LL	8e-\	p
.	32a-/JJk	.	.
.	32b-/LLL	8r	.
.	32cc/	.	.
.	32dd/	.	.
.	32ee-/JJJ)	.	.
4r	16b-/	4r	.
.	16r	.	.
.	(32ee-'/LLL	.	.
.	32dd'/	.	.
.	32dd-'/	.	.
.	32cc'/JJJ)	.	.
*	*v	*v	*
=6	=6	=6
16r	16bn/	.
16G\ 16e-\	16r	.
8r	(32ee-'/LLL	.
.	32ddn'/	.
.	32dd-'/	.
.	32cc'/JJJ)	.
16r	16b/	.
16G\ 16e-\	16r	.
8r	(32ee-'/LLL	.
.	32ddn'/	.
.	32dd-'/	.
.	32cc'/JJJ)	.
(4G\ [4e-\	(4b/	f
16A-\) 16e-\]	16cc/)	p
16r	16r	.
8r	32f'/LLL	.
.	32g'/	.
.	32a-'/	.
.	32an'/JJJ	.
=7	=7	=7
*^	*^	*
8r	8r	[8b-\L	4r	.
8E-/	8GG\	(32b-\LL]	.	.
.	.	32cc\	.	.
.	.	32dd\	.	.
.	.	(32ee-\JJJ)	.	.
(8G/L	4BB-\	8.e-/L	8.B-\L	f
8A-/J)	.	.	.	.
.	.	32g/LL	16d\Jk	.
.	.	32f/JJJ	.	.
2r	8E-'\ 8G'\L	8e-'/L	2r	p
.	8E-'\ 8G'\J	8e-'/J)	.	.
.	4r	4r	.	.
*v	*v	*	*	*
=8	=8	=8	=8
2B-\	4ff/	(16dd\LL	p
.	.	16f\	.
.	.	16dd\	.
.	.	(16f\JJ)	.
.	4dd/	16b-\LL	.
.	.	16f\	.
.	.	16b-\	.
.	.	16f\JJ)	.
[4FF/ [4F/	2r	[8dd\ [8ff\L	.
.	.	32dd\] (32ff\LL]	.
.	.	32cc#\ 32een\	.
.	.	32ccn\ 32ee-\	.
.	.	32b-\ 32dd\JJJ)	.
16FF/] 16F/]	.	16an\ 16cc\	.
16r	.	16r	.
8r	.	32dd\ (32ff#\LLL	.
.	.	32ee-\ 32gg\	.
.	.	32dd\ 32ff#\	.
.	.	32ee-\ 32gg\JJJ)	.
*clefG2	*	*	*
*	*v	*v	*
=9	=9	=9
*^	*	*
(32g-/LLL	2r	16an\ 16cc\	.
32f/	.	.	.
32g-/	.	16r	.
32f/JJJ)	.	.	.
8r	.	32dd\ (32ff#\LLL	.
.	.	32ee-\ 32gg\	.
.	.	32dd\ 32ff#\	.
.	.	32ee-\ 32gg\JJJ)	.
(32g-/LLL	.	16a\ 16cc\	.
32f/	.	.	.
32g-/	.	16r	.
32f/JJJ)	.	.	.
8r	.	32bn\LLL	.
.	.	(32cc\	.
.	.	32dd\	.
.	.	(32ee-\JJJ)	.
16r	4B-\	8.ffn\L	f
(16c/LL	.	.	.
16e-/	.	.	.
16an/JJ)	.	32gg\LL	p
.	.	32ee-\JJJ	.
16B-/ 16b-/	4r	16dd\)	.
16r	.	16r	.
8r	.	(32.ff\LLL	.
.	.	64dd\k	.
.	.	32.ff\	.
.	.	64dd\JJJk	.
*v	*v	*	*
*clefF4	*	*
=10	=10	=10
16D\LL	8bb-\)	.
16F\	.	.
(16B-\	[4bb-\	.
16F\JJ	.	.
16D\LL	.	.
16F\	.	.
16B-\	(32bb-\LLL]	.
.	32ccc\	.
16F\JJ	32ddd\	.
.	32bb-\JJJ	.
16E-\LL	16aan\LL	.
16G\	16gg\JJ)	.
16B-\	[4gg\	.
16G\JJ	.	.
16E-\LL	.	.
16G\	.	.
16B-\	(32gg\LLL]	.
.	32aa\	.
16G\JJ	32bb-\	.
.	32gg\JJJ	.
=11	=11	=11
16F\LL	16ff\LL	.
16An\	16ee-\J)	.
16c\	[8ee-\J	.
16A\JJ	.	.
16F\LL	(16ee-\LL]	.
16A\	16ee-'\	.
16c\	16ee-'\	.
16A\JJ	16ee-'\JJ	.
16G\LL	(8cc#\L)	.
16B-\	.	.
16d\	8dd\J)	.
16B-\JJ	.	.
16G\LL	16r	.
16B-\	(32b-\LLL	.
.	32dd'\JJJ	.
16d\	32ee-'\LLL	.
.	32ff'\	.
16B-\JJ)	32gg'\	.
.	32aan'\JJJ)	.
=12	=12	=12
(16D\LL	(32.bb-\LLL	f
.	64ff\k)	.
16F\	(32.ddd\	.
.	64bb-\JJk)	.
16B-\	[8fff\J	.
16F\JJ	.	.
16D\LL	(32fff\LLL]	.
.	32ddd\	.
16F\	32bbn\	.
.	32aa-\JJJ	.
16A-\	32ff\LLL	.
.	32dd\	.
16F\JJ	32bn\	.
.	32a-\JJJ	.
16E-\LL	16g\LK)	.
16G\	8ff#\	.
16c\	.	.
16G\JJ	8gg\	.
16En\LL	.	.
16G\	8aan\	.
16d-\	.	.
16G\JJ	[16bb-\Jk	.
=13	=13	=13
16F\LL	16bb-\LL]	.
16B-\	(32dddn\L	.
.	32fff\JJ	.
16dn\	[8ff\J	.
16B-\JJ	.	.
16F\LL	32ff\LLL]	.
.	32ff#\	.
16An\	32gg\	.
.	32ffn\JJJ)	.
16c\	(32ff\LLL	.
.	32ee-\	.
16A\JJ)	32dd\	.
.	32cc\JJJ	.
(32B-\LLL	8b-\)	p
32d\	.	.
32f\	.	.
32d\	.	.
32f\	8r	.
32d\	.	.
32f\	.	.
32d\JJJ	.	.
8F\ 8e-\)	(32an\LLL	<
.	32cc\	.
.	32gg\	.
.	32ff\	.
8r	32gg\	.
.	32ff\	.
.	32gg\	.
.	32ff\JJJ)	.
=14	=14	=14
(32B-\LLL	(8ff\L	<
32d\	.	.
32f\	.	.
32d\	.	.
32f\	16bb-\Jk)	.
32d\	.	.
32f\	16r	.
32d\JJJ	.	.
8F\ 8e-\)	(32an\LLL	<
.	32cc\	.
.	32gg\	.
.	32ff\	.
8r	32gg\	.
.	32ff\	.
.	32gg\	.
.	32ff\JJJ)	.
(32B-\LLL	(8ff\L	<
32d\	.	.
32f\	.	.
32d\	.	.
32f\	16b-\Jk)	.
32d\	.	.
32f\	16r	.
(32d\JJJ	.	.
4F\ 4e-\)	(32an\LLL	.
.	32cc\)	.
.	32gg\	.
.	32ff\	.
.	32gg\	.
.	32ff\	.
.	32gg\	.
.	32ff\JJJ)	.
=15	=15	=15
8B-\ 8d\	(32ff\LLL	.
.	32b-\	.
.	32bb-\)	.
.	32bb-'\JJJ	.
8r	(32bb-\LLL	.
.	32dd\	.
.	32ddd\)	.
.	32ddd'\JJJ	.
8r	(32ddd\LLL	.
.	32ff\	.
.	32fff\)	.
.	(32fff'\JJJ	.
*clefG2	*	*
(8f\ 8an\ (8ee-\	32fff'\LLL	p
.	32fff'\	.
.	32fff'\	.
.	32fff'\JJJ)	.
16b-\) 16dd\)	16bb-\	.
16r	16r	.
(8f\ 8a\ (8ee-\	(32fff'\LLL	.
.	32fff'\	.
.	32fff'\	.
.	32fff'\JJJ)	.
16b-\) 16dd\)	16bb-\	.
16r	16r	.
(8f\ 8a\ (8ee-\	(32fff'\LLL	pp
.	32fff'\	.
.	32fff'\	.
.	32fff'\JJJ)	.
=16	=16	=16
*	*^	*
16b-\) 16dd\)	16bb-\	4r	.
16r	16r	.	.
*clefF4	*clefF4	*clefF4	*clefF4
(4CC/ (4C/	[4F/ [4A-/	.	.
.	.	8r	.
8CC-/) 8C-/)	8F/] 8A-/]	(4E-\	.
4BBB-/ 4BB-/	8r	.	.
*	*clefG2	*clefG2	*clefG2
.	4r	8D\)	.
4r	.	32E-\LLL	p
.	.	32D\	.
.	.	32F\	.
.	.	32A-\JJJ	.
.	32ff\LLL	32d/LLL	.
.	32aa-\JJJ	32f/	.
.	16r	32a-/	.
.	.	32dd/JJJ	.
=17	=17	=17	=17
(16E-\LL	[8b-/L	2r	p
16G\	.	.	.
16B-\	(32b-/LL]	.	.
.	64an/L	.	.
.	64b-/	.	.
16G\JJ	64cc/	.	.
.	64b-/	.	.
.	64a/	.	.
.	64b-/JJJJ	.	.
16E-\LL	8g/L)	.	.
16G\	.	.	.
16B-\	8g/J	.	.
16G\JJ	.	.	.
16BB-\LL	8..g/L	(4e-\	.
16E-\	.	.	.
16G\	.	.	.
16E-\JJ	.	.	.
.	32a/Jkk)	.	.
16BB-\LL	8f/	8d\	.
16D\	.	.	.
16F\)	32r	8r	.
.	(32b-/LLL	.	.
16D\JJ	32a/	.	.
.	32f/JJJ)	.	.
=18	=18	=18	=18
4E-\	4e-/	(16G\LL	f
.	.	16B-\	.
.	.	16G\	.
.	.	(16B-\JJ)	.
4BB-/	4f/	16d\LL	.
.	.	16B-\	.
.	.	16d\	.
.	.	16B-\JJ)	.
4EE-/	(16.g/LL	8e-\	.
.	32a-/JJk	.	p
.	32b-/LLL	8r	.
.	32cc/	.	.
.	32dd/	.	.
.	32ee-/JJJ)	.	.
4r	16b-/	8r	.
.	16r	.	.
.	16ee-/ 16gg/LL	8r	.
.	16dd/ (16ff/JJ	.	.
=19	=19	=19	=19
8r	16cc/ 16ee-/LL	2r	<
.	[16b-/ (16dd/	.	.
(16DD/ 16D/LL	32b-/] 32dd/k	.	.
.	16a-/ 16cc/)	.	.
16EE-/ 16E-/	.	.	.
.	16g/ 16b-/	.	.
16FF/ 16F/	.	.	.
.	16f/ 16a-/	.	.
16GG/ 16G/	.	.	.
.	32e-/ 32g/k	.	.
16AA-/ 16A-/	16c/ 16cc/	.	.
16FF/) 16F/JJ	16f/ 16a-/JJ)	.	.
(16An\LL	(4g/	(4e-\	f
16B-\	.	.	.
16G\	.	.	.
16E-\JJ	.	.	.
8BB-/)	16f/LL)	8d\)	.
.	(16g'/	.	p
8r	16a-'/	8r	.
.	16an'/JJ)	.	.
=20	=20	=20	=20
(16E-\LL	([8b-/L	2r	.
16G\	.	.	.
16B-\	32b-/LL]	.	.
.	32dd/	.	.
16G\JJ	32ee-/	.	.
.	32b-/JJJ	.	.
16E-\LL	16g/LL)	.	.
16G\	16g/	.	.
16B-\	16g/	.	.
16G\JJ	16g/JJ	.	.
16BB-\LL	8..g/L	(4e-\	.
16E-\	.	.	.
16G\	.	.	.
16E-\JJ	.	.	.
.	32a-/Jkk	.	.
16BB-\LL	8f/	8d\)	.
16D\	.	.	.
16F\	32r	8r	.
.	(32B-/LLL	.	.
16BB-\JJ)	32c/	.	.
.	32d/JJJ	.	.
=21	=21	=21	=21
4E-\	4e-/)	16r	f
.	.	16B-\LL	.
.	.	16G\	.
.	.	(16B-\JJ	.
4BB-/	4f/	16d\LL	.
.	.	16B-\	.
.	.	16d\	.
.	.	16B-\JJ)	.
4EE-/	(16.g/LL	8e-\	.
.	32a-/JJk	.	.
.	32b-/LLL	8r	p
.	32cc/	.	.
.	32dd/	.	p
.	32ee-/JJJ)	.	f
4r	16b-/	4r	.
.	16r	.	.
.	(32ee-'/LLL	.	.
.	32dd'/	.	.
.	32dd-'/	.	.
.	32cc'/JJJ)	.	.
*	*v	*v	*
=22	=22	=22
16r	16bn/	.
16G\ 16e-\	16r	.
8r	(32ee-'/LLL	.
.	(32ddn'/	.
.	32dd-'/)	.
.	32cc'/JJJ)	.
16r	16b/	.
16G\ 16e-\	16r	.
8r	(32ee-'/LLL	.
.	32ddn'/	.
.	32dd-'/	.
.	32cc'/JJJ)	.
(4G\ (4d-\ [4e-\	(4b/	.
8A-\) 8c\) 8e-\]	16cc/)	.
.	16r	.
8r	(32f'/LLL	.
.	32g'/	.
.	32a-'/	.
.	32an'/JJJ)	.
=23	=23	=23
*^	*^	*
8r	4r	[8b-/L	4r	<
8GG/ 8E-/	.	32b-/LL]	.	.
.	.	(64dd/L	.	.
.	.	64cc/	.	.
.	.	64ee-/	.	.
.	.	64dd/	.	.
.	.	64ff/	.	.
.	.	64ee-/JJJJ)	.	.
(8G/L	4BB-\	(8.e-/L	8.B-\L	f
8A-/J	.	.	.	.
.	.	32g/LL	16d\Jk	.
.	.	32f/JJJ	.	.
2r	8E-'\ 8G'\L)	8e-'/L)	2r	p
.	8E-'\ 8G'\J	8e-'/J	.	.
.	4r	4r	.	.
=24	=24	=24	=24	=24
2r	16AAA-\LL	2r	4cc\ 4aa-\	.
.	16AA-\	.	.	.
.	16AA-\	.	.	.
.	16AA-\JJ	.	.	.
.	16AA-\LL	.	4b-\ 4gg\	.
.	16AA-\	.	.	.
.	16AA-\	.	.	.
.	16AA-\JJ	.	.	.
4C/	16AA-\LL	[4ccc/	4ff\	.
.	16AA-\	.	.	.
.	16AA-\	.	.	.
.	16AA-\JJ	.	.	.
4BB-/	16EE-\LL	32ccc/LLL]	32ee-\	<
.	.	(32ddd/	16.r	.
.	16EE-\	32ccc/	.	.
.	.	32ddd/JJJ	.	.
.	16EE-\	32bb-/LLL	8r	.
.	.	32ccc/	.	.
.	16EE-\JJ	32bb-/	.	.
.	.	32ccc/JJJ)	.	.
=25	=25	=25	=25	=25
2r	16AAA-\LL	4cc\ 4aa-\	2r	f
.	16AA-\	.	.	.
.	16AA-\	.	.	.
.	16AA-\JJ	.	.	.
.	16AA-\LL	4b-\ 4gg\	.	.
.	16AA-\	.	.	.
.	16AA-\	.	.	.
.	16AA-\JJ	.	.	.
*	*	*v	*v	*
*	*	*clefG2	*clefG2
*	*	*^	*
4C/	16AA-\LL	4A-\	[4e-/	.
.	16AA-\	.	.	.
.	16AA-\	.	.	.
.	16AA-\JJ	.	.	.
4BB-/	16EE-\LL	32G\	32e-/LLL]	<
.	.	16.r	(32f/	.
.	16EE-\	.	32e-/	.
.	.	.	32f/JJJ	.
.	16EE-\	8r	32d-/LLL	.
.	.	.	32e-/	.
.	16EE-\JJ	.	32d-/	.
.	.	.	32e-/JJJ)	.
*v	*v	*	*	*
*	*v	*v	*
=26	=26	=26
16AA-\LL	8A-/ 8c/	f
16A-\	.	.
16A-\	(4c/ (4a-/	.
16A-\JJ	.	.
16A-\LL	.	.
16A-\	.	.
16A-\	8e-/) 8g/)	.
16A-\JJ	.	.
4A-\	(16e-/ 16g/LL	.
.	16d-/ 16f/J	.
.	8c/) 8e-/J	.
4r	(16ddn\LL	p
.	16ee-\	.
.	16ff\	.
.	16ee-\JJ)	.
=27	=27	=27
(16E-\LL	(16ee-\LL	.
16B-\	16g\J)	.
16d-\	[8g\J	.
16B-\JJ	.	.
16E-\LL	16g/LL]	.
16B-\	(16g/	.
16d-\	16a-/	.
16B-\JJ	(16b-/JJ)	.
16E-\LL	16.b-/LL	.
16A-\	.	.
.	32cc/Jk	.
16c\	8a-/J)	<
16A-\JJ	.	.
16E-\LL	(32ddn\LLL	.
.	32ee-\	.
16A-\	32dd\	.
.	32ee-\JJJ	.
16c\	32dd\LLL	.
.	32ee-\	.
16A-\JJ	32ff\	.
.	32ee-\JJJ)	.
=28	=28	=28
16E-\LL	(16ee-\LL	p
16G\	16b-\J)	.
16B-\	[8b-\J	.
16G\JJ	.	.
16E-\LL	16b-\LL]	.
16G\	(16b-\	.
16B-\	16cc\	.
16G\JJ	16dd-\JJ	.
16E-\LL	8bn\L	.
16A-\	.	.
16c\	16cc\Jk)	.
16A-\JJ	16r	.
8E-\)	(32b\LLL	.
.	32cc\	.
.	32b\	.
.	32cc\JJJ	.
8r	32b\LLL	.
.	32cc\	.
.	32dd-\	.
.	32cc\JJJ)	.
=29	=29	=29
*^	*	*
2r	(16D\LL	8b-\ 8ddn\ 8ff\ 8aa-\	f
.	16F\	.	.
.	16B-\	4aa-\	.
.	16F\JJ	.	.
.	8D\)	.	.
.	8r	32aa-/LLL	.
.	.	32bb-/	.
.	.	32aa-/	.
.	.	32gg/	.
.	.	ffQ/L	.
.	.	ee-Q/	.
.	.	ddQ/	.
.	.	ccQ/	.
.	.	b-Q/	.
.	.	a-Q/	.
.	.	gQ/	.
.	.	fQ/	.
.	.	e-Q/	.
.	.	dQ/	.
.	.	cQ/	.
.	.	B-Q/	.
.	.	A-Q/JJJJ	.
8r	(16EE-\LL	8G/	.
.	16GG\	.	.
4E-/	16BB-\	8r	.
.	16GG\JJ	.	.
.	8EE-\)	4r	.
32F/LLL	8r	.	.
32E-/	.	.	.
32D/	.	.	.
32E-/	.	.	.
*v	*v	*	*
=30	=30	=30
32FQ/	cQ\LLLL	.
32GQ/	dQ\	.
32A-Q/JJJ	e-Q\	.
.	fQ\	.
.	gQ\	.
.	a-Q\	.
.	b-Q\	.
.	ccQ\	.
.	ddQ\	.
.	ee-Q\	.
.	ffQ\	.
.	ggQ\	.
.	aa-Q\	.
.	bb-Q\	.
.	cccQ\	.
.	dddQ\JJJJ	.
(16C\LL	8eee-\	.
16E-\	.	.
16An\	4eee-\	.
16E-\JJ	.	.
8C/)	.	.
8r	(32ddd\LLL	.
.	32eee-\	.
.	32fff\	.
.	32eee-\	.
.	32dddQ\	.
.	32cccQ\	.
.	32bb-Q\	.
.	aanQ\L	.
.	ggQ\	.
.	ffQ\	.
.	ee-Q\	.
.	ddQ\	.
.	ccQ\	.
.	b-Q\	.
.	anQ\	.
.	gQ\	.
.	fQ\	.
.	e-Q\JJJJ	.
8BB-/	32d/LLL	.
.	32f/JJ	.
.	8b-/)	.
*clefG2	*	*
(8d/ (8a-/	.	.
.	[16b-/Jk	.
4e-/) 4g-/)	16b-\LL]	p
.	(16ee-\	.
.	16cc-\	.
.	16an\JJ	.
=31	=31	=31
16d/ 16f/	16b-\)	.
16r	(16ee-\LL	.
(8e-/ 8g-/L	16cc-\	.
.	16an\JJ	.
16d/) 16f/Jk	16b-\)	.
16r	(16ee-\LL	.
(8e-/ 8g-/L	16cc-\	.
.	16a\JJ	.
16d/) 16f/Jk	16b-\)	.
16r	(16b-/LL	.
8r	16a/	.
.	16b-/JJ	.
4r	16a/LL	.
.	16b-/	.
.	16cc-/	.
.	16b-/JJ)	.
*clefF4	*	*
=32	=32	=32
*^	*^	*
2r	16GG-\LL	4d-/ 4b-/	2r	p
.	16G-\	.	.	.
.	16G-\	.	.	.
.	16G-\JJ	.	.	.
.	16G-\LL	4c-/ 4a-/	.	.
.	16G-\	.	.	.
.	16G-\	.	.	.
.	16G-\JJ	.	.	.
4B-/	16G-\LL	[4dd-/	4g-\	.
.	16G-\	.	.	.
.	16G-\	.	.	.
.	16G-\JJ	.	.	.
4A-/	16D-\LL	(32dd-/LLL]	32f\	.
.	.	32ee-/	16.r	.
.	16D-\	32dd-/	.	.
.	.	32ee-/JJJ	.	.
.	16D-\	32cc-/LLL	8r	.
.	.	32dd-/	.	.
.	16D-\JJ	32cc-/	.	.
.	.	32dd-/JJJ)	.	.
=33	=33	=33	=33	=33
2r	16GG-\LL	4d-/ 4b-/	2r	p
.	16G-\	.	.	.
.	16G-\	.	.	.
.	16G-\JJ	.	.	.
.	16G-\LL	4c-/ 4a-/	.	.
.	16G-\	.	.	.
.	16G-\	.	.	.
.	16G-\JJ	.	.	.
4B-/	16G-\LL	(4dd-/	4g-\	.
.	16G-\	.	.	.
.	16G-\	.	.	.
.	16G-\JJ	.	.	.
4A-/	16D-\LL	32dd-/LLL	32f\	.
.	.	32ee-/)	16.r	.
.	16D-\	32dd-/	.	.
.	.	32ee-/JJJ	.	.
.	16D-\	32cc-/LLL	8r	.
.	.	32dd-/	.	.
.	16D-\JJ	32cc-/	.	.
.	.	32dd-/JJJ	.	.
*v	*v	*	*	*
*	*v	*v	*
=34	=34	=34
(16G-\LL	8b-\	p
16d-\	.	.
16B-\	4dd-\	.
16d-\JJ	.	.
16F\LL	.	.
16d-\	.	.
16F-\	16cc-\LL	.
16d-\JJ	16b-\JJ	.
16E-\LL	16a-/LL	f
16d-\	16gn/JJ	.
16E-\	16r	.
16d-\JJ	32r	.
.	32g/	.
16E-\LL	(16.b-/LL	.
16c-\	.	.
.	32a-/k)	.
16E-\	(16.cc-/	.
16Gn\JJ	.	.
.	32b-/JJk)	.
=35	=35	=35
16A-\LL	(16.dd-\LL	p
16e-\	.	.
.	32cc-\Jk)	.
16c-\	[8ee-\J	.
16e-\JJ	.	.
16G\LL	16ee-\LL]	.
16e-\	(32ddn\L	.
.	32ee-\	.
16G-\	32ff\	.
.	32ee-\	.
16e-\JJ	32dd-\	.
.	32ccn\JJJ	.
16Fn\LL	16b-/LL	f
16e-\	16an/JJ)	.
16F\	16r	.
16e-\JJ	32r	.
.	32a/	.
16F\LL	(16.cc\LL	.
16d-\	.	.
.	32b-\k)	.
16F\	(16.dd-\	.
16An\JJ)	.	.
.	32cc\JJk)	.
=36	=36	=36
(16B-\LL	(16.ee-\LL	p
16f\	.	.
.	32dd-\Jk)	.
16d-\	[8ff\J	.
16f\JJ	.	.
16An\LL	16ff\LL]	<
16f\	(32een\L	.
.	32ff\	.
16A-\	32gg\	.
.	32ff\	.
16f\JJ	32ee-\	.
.	32ddn\JJJ	.
16G\LL	16cc\LL	f
16g\	16bn\JJ)	.
16f\	16r	.
16g\JJ	32r	.
.	32b\	.
16e-\LL	(16.dd\LL	.
16g\	.	.
.	32cc\k)	.
16Bn\	(16.ee-\	.
16g\JJ	.	.
.	32dd\JJk)	.
=37	=37	=37
16c\LL	(16.ff\LL	p
16g\	.	.
.	32ee-\Jk)	.
16e-\	[8gg\J	.
16g\JJ	.	.
16Bn\LL	8gg\L]	.
16g\	.	.
16B-\	(48ff#\LL	.
.	48gg\	.
.	48aa-\	.
16g\JJ	48gg\	.
.	48ffn\	.
.	48ee-\JJJ	.
16A-\LL	16.dd\LL	f
16g\	.	.
.	32cc\Jk)	.
16e-\	([8ccc\J	.
16g\JJ	.	.
16A-\LL	16.ccc\LL]	.
16f#\	.	.
.	32ddd\k	.
16e-\	16eee-\	.
16c\JJ)	16ff#\JJ	.
=38	=38	=38
1r	32gg\)	p
.	32G\LLL	.
.	32Bn\	.
.	32d\JJJ	.
.	32g\	.
.	32bn/LLL	.
.	32dd/	.
.	32gg/JJJ	.
.	32ff#/	.
.	32G/LLL	.
.	32c/	.
.	32e-/JJJ	.
.	32f#\	.
.	32an/LLL	.
.	32cc/	.
.	32ff#/JJJ	.
.	32gg/	.
.	32G/LLL	.
.	32B/	.
.	32d/JJJ	.
.	32g\	.
.	32b/LLL	.
.	32dd/	.
.	32gg/JJJ	.
.	32ff#/	.
.	32G/LLL	.
.	32c/	.
.	32e-/JJJ	.
.	32f#\	.
.	32a/LLL	.
.	32cc/	.
.	32ff#/JJJ	.
=39	=39	=39
1r	32gg/	.
.	32G\LLL	.
.	32Bn\	.
.	32d\JJJ	.
.	32g\	.
.	32bn/LLL	.
.	32dd/	.
.	32ff#/JJJ	.
.	32gg/	.
.	32G\LLL	.
.	32B\	.
.	32d\JJJ	.
.	32g\	.
.	32b/LLL	.
.	32dd/	.
.	32gg/JJJ	.
.	32aa-/	.
.	32Fn\LLL	.
.	32B\	.
.	32d\JJJ	.
.	32fn\	.
.	32b/LLL	.
.	32dd/	.
.	32aa-/JJJ	.
.	32aan/	.
.	32E-\LLL	.
.	32An\	.
.	32c\JJJ	.
.	32e-\	.
.	32cc/LLL	.
.	32ffn/	.
.	32aa/JJJ	.
=40	=40	=40
4D\	(32bb-\LLL	f
.	32bbn\	.
.	32ccc\	.
.	32bb-\JJJ	.
.	32aa-\LLL	.
.	32gg\	.
.	32ff\	.
.	32ee-\JJJ	.
4r	32dd\LLL	.
.	32cc\	.
.	32b-\	.
.	32an\JJJ	.
.	32a-/LLL	.
.	32g/	.
.	32f/	.
.	32e-/JJJ	.
2BB-\ 2F\ 2A-\	32d/LLL	.
.	32c/	.
.	32B-/	.
.	32c/JJJ	.
.	32d/LLL	.
.	32e-/	.
.	32f/	.
.	32g/JJJ	.
.	32a-/LLL	.
.	32g/	.
.	32f/	.
.	32en/JJJ	.
.	32f/LLL	pp
.	32g/	.
.	32a-/	.
.	32a-/JJJ)	.
=41	=41	=41
*	*^	*
(16E-\LL	[8b-/L	2r	p
16G\	.	.	.
16B-\	(32b-/LL]	.	.
.	32cc/	.	.
16G\JJ	32dd/	.	.
.	32ee-/JJJ)	.	.
16E-\LL	(16ee-/LL	.	.
16G\	16g/)	.	.
16B-\	(16g'/	.	.
16G\JJ	16g'/JJ)	.	.
16BB-\LL	8..g/L	(4e-\	.
16E-\	.	.	.
16G\	.	.	.
16E-\JJ	.	.	.
.	32a-/Jkk	.	.
16BB-\LL	8f/	8d\)	.
16D\	.	.	.
16F\	48r	8r	.
.	(48b-/LLL	.	.
.	48an/JJJ	.	.
16D\JJ)	48a-/LLL	.	.
.	48g/)	.	.
.	48f/JJJ	.	.
=42	=42	=42	=42
4E-\	(4e-/	16G\LL	f
.	.	16B-\	.
.	.	16G\	.
.	.	(16B-\JJ)	.
4BB-/	4f/	16d\LL	.
.	.	16B-\	.
.	.	16d\	.
.	.	16B-\JJ)	.
4EE-/	(16.g/LL	8e-\	.
.	32a-/JJk	.	p
.	32b-/LLL	8r	.
.	32cc/	.	.
.	32dd/	.	.
.	32ee-/JJJ)	.	.
4r	16b-/	4r	.
.	16r	.	.
.	(32ee-\LLL	.	.
.	32gg\	.	.
.	32dd\	.	.
.	32ff\JJJ	.	.
=43	=43	=43	=43
8r	32cc\LLL	2r	.
.	32ee-\	.	.
.	32b-\	.	.
.	32dd\JJJ	.	.
(32DD/LLL	32a-/LLL	.	.
32D/	32cc/	.	.
32EE-/	32g/	.	.
32E-/JJJ	32b-/JJJ	.	.
32FF/LLL	32f/LLL	.	.
32F/	32a-/	.	.
32GG/	32e-/	.	.
32G/JJJ	32g/JJJ	.	.
32AA-/LLL	32c/LLL	.	.
32A-/	32cc/	.	.
32FF/)	32f/	.	.
32F/JJJ	32a-/JJJ)	.	.
(32An\LLL	(4g/	(4e-\	f
32B-\	.	.	.
32c\	.	.	.
32B-\JJJ	.	.	.
32A\LLL	.	.	.
32B-\	.	.	.
32G\	.	.	.
32E-\JJJ	.	.	.
8BB-/)	32f/LLL)	32d\)	.
.	(32e-'/	16.r	p
.	32d'/	.	.
.	32e-'/JJJ	.	.
8r	32f'/LLL	8r	.
.	32g'/	.	.
.	32a-'/	.	.
.	32an'/JJJ)	.	.
=44	=44	=44	=44
(16E-\LL	2r	[8b-\L	.
16G\	.	.	.
16B-\	.	(32b-\LL]	.
.	.	64dd\L	.
.	.	64cc\	.
16G\JJ	.	64ee-\	.
.	.	64dd\	.
.	.	64ff\	.
.	.	64ee-\JJJJ)	.
16E-\LL	.	(16ee-\LL	.
16G\	.	16g\)	.
16B-\	.	16g'\	.
16G\JJ	.	16g'\JJ	.
16BB-\LL	(8g/L	(4e-\	.
16E-\	.	.	.
16G\	[8b-/J)	.	.
16E-\JJ	.	.	.
16BB-\LL	32b-/LLL]	16d\)	.
.	(32an'/	.	p
16D\	32a-'/	8.r	.
.	32g'/JJJ	.	.
16F\	32b-'/LLL	.	.
.	32a-'/	.	.
16D\JJ)	32g'/	.	.
.	32f'/JJJ)	.	.
=45	=45	=45	=45
4EE-/ 4E-/	8..e-/L	16r	f
.	.	(16B-\LL	.
.	.	16G\	.
.	.	16B-\JJ)	.
.	32en/Jkk	.	.
4BBB-/ 4BB-/	(8..f/L	16r	.
.	.	16d\LL	.
.	.	16B-\	.
.	.	16d\JJ)	.
.	32f#/Jkk	.	.
4EE-/ 4E-/	16.g/LL	8e-\	.
.	32a-/JJk	.	p
.	48an/LLL	8r	.
.	48b-/	.	.
.	48bn/JJJ	.	.
.	64cc\LLLL	.	.
.	64dd-\	.	.
.	64ddn\	.	.
.	64ee-\JJJJ	.	.
4r	4r	16b-\	.
.	.	16r	.
.	.	(32ee-'\LLL	p
.	.	32dd'\	.
.	.	32dd-'\	.
.	.	32cc'\JJJ)	.
*	*v	*v	*
=46	=46	=46
(32e-'\LLL	16bn\	.
32dn'\	.	.
32d-'\	16r	.
32c'\JJJ)	.	.
16G\ 16Bn\	(32ee-'\LLL	.
.	32ddn'\	.
16r	32dd-'\	.
.	32cc'\JJJ)	.
(32e-'\LLL	16b\	.
32dn'\	.	.
32d-'\	16r	.
32c'\JJJ)	.	.
16G\ 16B\	(32ee-'\LLL	.
.	32ddn'\	.
16r	32dd-'\	.
.	32cc'\JJJ)	.
(4G\ [4e-\	(8.b\L	f
.	32.ddn\LL	.
.	64cc\JJJk)	.
16A-\) 16e-\]	16cc\	.
16r	16r	.
8r	(32f'/LLL	p
.	32g'/	.
.	32a-'/	.
.	32an'/JJJ)	.
=47	=47	=47
*^	*^	*
8r	4r	4r	[8b-\L	.
8GG/ 8E-/	.	.	(48b-'\LL]	<
.	.	.	48bn'\	.
.	.	.	48cc'\	.
.	.	.	48dd-'\	.
.	.	.	48ddn'\	.
.	.	.	(48ee-'\JJJ)	.
(8G/L	4BB-\	8.e-/L	8.r	f
8A-/J)	.	.	.	.
.	.	32g/LL	16d\	.
.	.	32f/JJJ)	.	.
2r	(16E-\LL	2r	8e-/	p
.	16G\	.	.	.
.	16B-\	.	8r	.
.	16G\JJ	.	.	.
.	16E-\LL	.	(8.cc\L	.
.	16A-\	.	.	.
.	16c\	.	.	.
.	16A-\JJ	.	32ee-\LL	.
.	.	.	32cc\JJJ	.
*v	*v	*	*	*
*	*v	*v	*
=48	=48	=48
16E-\LL	32b-\LLL	.
.	32gg\	.
16G\	32ff\	.
.	32ee-\JJJ	.
16B-\	32dd\LLL	.
.	32ee-\	.
16G\JJ	32ff\	.
.	32ee-\JJJ	.
16E-\LL	16dd\LK	.
16A-\	8cc\	.
16c\)	.	.
16A-\JJ	32ee-\LL	.
.	32cc\JJJ	.
8E-\ 8G\ 8B-\	32b-\LLL	.
.	32gg\	.
.	32ff\	.
.	32ee-\JJJ	.
8r	32dd\LLL	.
.	32ee-\	.
.	32ff\	.
.	32ee-\JJJ)	.
8AA-/ 8C/ 8F/	32r	.
.	(32ee-\LLL	.
.	32dd\	.
.	32cc\JJJ	.
8r	32bn\LLL	.
.	32cc\	.
.	32dd\	.
.	32cc\JJJ)	.
=49	=49	=49
16BB-\ 16G\	32r	.
.	(32b-\LLL	.
16r	32ee-\	.
.	32b-\JJJ)	.
16BB-\ 16E-\	32r	.
.	(32g/LLL	.
16r	32b-/	.
.	32g/JJJ)	.
16BB-\ 16F\	32r	.
.	(32a-/LLL	.
16r	32cc/	.
.	32a-/JJJ)	.
16BB-\ 16A-\	32r	.
.	(32d/LLL	.
16r	32f/	.
.	32d/JJJ)	.
(16E-\LL	8e-/	.
16G\	.	.
16B-\	32r	.
.	(32ee-\LLL	.
16G\JJ	32dd\	.
.	32dd-\JJJ	.
16E-\LL	16bn\LL	.
16A-\	16cc\JJ)	.
16c\	32cc\LLL	.
.	(64ee-\L	.
.	64ddn\	.
16A-\JJ	64ff\	.
.	64ee-\	.
.	64dd\	.
.	64cc\JJJJ	.
=50	=50	=50
16E-\LL	32b-\LLL	.
.	32gg\	.
16G\	32ff\	.
.	32ee-\JJJ	.
16B-\	32dd\LLL	.
.	32ee-\	.
16G\JJ	32ff\	.
.	32ee-\JJJ	.
16E-\LL	32.dd\LLL	f
.	64cc\Jk)	.
16A-\	[16ccc\JJ	.
16c\	64ccc\LLLL]	.
.	(64bb-'\	.
.	64aa-'\	.
.	64gg'\	.
16A-\JJ	64ff'\	.
.	64ee-'\	.
.	64dd'\	.
.	64cc'\JJJJ	.
8E-\ 8G\ 8B-\)	32b-'\LLL	p
.	(32gg\)	.
.	32ff\	.
.	32ee-\JJJ	.
8r	32dd\LLL	.
.	32ee-\	.
.	32ff\	.
.	32ee-\JJJ)	.
8F\ 8A-\ 8B-\ 8d\	32r	.
.	(32aa-\LLL	.
.	32gg\	.
.	32ff\JJJ	.
8r	32een\LLL	.
.	32ff\	.
.	32gg\	.
.	32ff\JJJ)	.
=51	=51	=51
*^	*	*
4r	16r	4bb-\	.
.	(16G\LL	.	.
.	16B-\	.	.
.	16e-\JJ)	.	.
.	.	32aa-Q/LLL	.
.	.	32ggQ/	.
.	.	32ffQ/	.
.	.	ee-Q/L	.
.	.	ddQ/	.
.	.	ccQ/	.
.	.	b-Q/	.
.	.	a-Q/	.
.	.	gQ/	.
.	.	fQ/	.
.	.	e-Q/	.
.	.	dQ/	.
.	.	cQ/	.
.	.	B-Q/	.
.	.	A-Q/JJJJ	.
4G/	16r	2.r	.
.	(16CC\LL	.	.
.	16EE-\	.	.
.	16C\JJ)	.	.
4F/	16r	.	.
.	(16AAA-\LL	.	.
.	16CC\	.	.
.	16AA-\JJ)	.	.
[4E-/	16r	.	.
.	(16AAAn\LL	.	.
.	16CC\	.	.
.	16FF\JJ)	.	.
=52	=52	=52	=52
16E-/LK]	(8BBB-\L	2.r	.
8D/	.	.	.
.	8EE-\	.	.
8C/	.	.	.
.	8DD\	.	.
8BB-/	.	.	.
.	8CC\J)	.	.
16AAn/Jk	.	.	.
4AA-;/	4BBB-;\ 4DD;\ 4FF;\	.	.
*v	*v	*	*
4r	4r	.
BB-Q/LLLL	.	.
AA-Q/	.	.
GGQ/	.	.
AA-Q/	.	.
BB-Q/	.	.
CQ/	.	.
DQ/	.	.
E-Q/	.	.
FQ/	.	.
GQ/JJJJ	.	.
=53	=53	=53
16E-\	32r	pp
.	(32gg\LLL	.
16r	32bb-\	.
.	32gg\JJJ)	.
16G\	32r	.
.	(32ee-\LLL	.
16r	32gg\	.
.	32ee-\JJJ)	.
16A-\	32r	.
.	(32cc\LLL	.
16r	32ee-\	.
.	32cc\JJJ)	.
16c\	32r	.
.	(32a-\LLL	.
16r	32cc\	.
.	32a-\JJJ)	.
(16BB-\LL	(32g/LLK	.
.	16b-/	.
16G\	.	.
.	16an/	.
16E-\	.	.
.	16a-/	.
16G\JJ	.	.
.	32g/JJk)	.
16BB-\LL	(8.f/L	.
16A-\	.	.
16D\	.	.
16A-\JJ)	32e-/LL	.
.	32f/JJJ	.
=54	=54	=54
32E-\LLL	8e-/)	.
(32G\	.	.
32B-\	.	.
32G\	.	.
32B-\	8r	.
32G\	.	.
32B-\	.	.
32G\JJJ	.	.
8BB-\ 8A-\)	(32d/LLL	.
.	32f/	.
.	32cc/	.
.	32b-/	.
8r	32cc/	.
.	32b-/	.
.	32cc/	.
.	32b-/JJJ)	.
(32E-\LLL	(8b-\L	.
32G\	.	.
32B-\	.	.
32G\	.	.
32B-\	16ee-\Jk)	.
32G\	.	.
32B-\	16r	.
32G\JJJ	.	.
8BB-\ 8A-\)	(32d/LLL	.
.	32f/	.
.	32cc/	.
.	32b-/	.
8r	32cc/	.
.	32b-/	.
.	32cc/	.
.	32b-/JJJ)	.
=55	=55	=55
(32E-\LLL	(8b-/L	.
32G\	.	.
32B-\	.	.
32G\	.	.
32B-\	16e-/Jk)	.
32G\	.	.
32B-\	16r	.
32G\JJJ	.	.
8BB-\ 8A-\)	(32d/LLL	.
.	32f/	.
.	32cc/	.
.	32b-/	.
8r	32cc/	.
.	32b-/	.
.	32cc/	.
.	(32b-/JJJ)	.
8E-\ 8G\	32b-/LLL	.
.	32e-/	.
.	32ee-/)	.
.	32ee-'/JJJ	.
8r	(32ee-\LLL	.
.	32g\	.
.	32gg\)	.
.	32gg'\JJJ	.
8r	(32gg\LLL	.
.	32b-\	.
.	32bb-\)	.
.	32bb-'\JJJ	.
*clefG2	*	*
(8B-/ 8d/ (8a-/	(32bb-'\LLL	.
.	32bb-'\	.
.	32bb-'\	.
.	32bb-'\JJJ)	.
=56	=56	=56
16e-/) 16g/)	16ee-\	.
16r	16r	.
(8B-/ 8d/ (8a-/	(32bb-'\LLL	.
.	32bb-'\	.
.	32bb-'\	.
.	32bb-'\JJJ)	.
16e-/) 16g/)	16ee-\	.
16r	16r	.
(8B-/ 8d/ (8a-/	(32bb-'\LLL	.
.	32bb-'\	.
.	32bb-'\	.
.	32bb-'\JJJ)	.
16e-/) 16g/)	16eee-\	.
16r	16r	.
8r	8r	.
*clefF4	*	*
(32BB-'/LLL	(4A-/ 4B-/ (4d/	.
32BB-'/	.	.
32BB-'/	.	.
32BB-'/JJJ	.	.
32BB-'/LLL	.	.
32BB-'/	.	.
32BB-'/	.	.
32BB-'/JJJ)	.	.
=57	=57	=57
16EE-/	16G/) 16B-/ 16e-/)	.
16r	16r	.
(32BB-'/LLL	(8A-/ 8B-/ 8d/ 8f/	.
32BB-'/	.	.
32BB-'/	.	.
32BB-'/JJJ)	.	.
16EE-/	16G/) 16B-/ 16e-/	.
16r	16r	.
(32BBB-'/LLL	(8A-/ 8B-/ 8d/ 8f/	.
32BBB-'/	.	.
32BBB-'/	.	.
32BBB-'/JJJ)	.	.
16EE-/	16G/) 16B-/ 16e-/	.
16r	16r	.
8r	8r	.
4r	4r	.
==	==	==
*-	*-	*-
!!!SMS: Alte Mozart-Ausgabe, Band 20, Breitkopf &amp; H&auml;rtel 1877-1883.
!!!ONB: Stich und Druck von Breitkopf &amp; H&auml;rtel in Leipzig
!!!ONB: Ausgegeben 1878
!!!ENC: Craig Stuart Sapp
!!!END: 2009/10/01/
!!!title: @{OTL}, K 457, @{OMV}
!!!hum2abc: --no-tempo -s 0.71 --spacing 1.9 -p "%gracespace  0 6.0 12.0"
